SVG_Azure_All/Azure Monitor Azure Stack Health.svg

<?xml version="1.0" encoding="UTF-8" standalone="no"?>
<!-- Generated by Microsoft Visio, SVG Export Azure Monitor Azure Stack Health.svg Page-1 -->

<svg
   xmlns:dc="http://purl.org/dc/elements/1.1/"
   xmlns:cc="http://creativecommons.org/ns#"
   xmlns:rdf="http://www.w3.org/1999/02/22-rdf-syntax-ns#"
   xmlns:svg="http://www.w3.org/2000/svg"
   xmlns="http://www.w3.org/2000/svg"
   xmlns:sodipodi="http://sodipodi.sourceforge.net/DTD/sodipodi-0.dtd"
   xmlns:inkscape="http://www.inkscape.org/namespaces/inkscape"
   width="0.78736091in"
   height="0.78756577in"
   viewBox="0 0 56.690005 56.704513"
   xml:space="preserve"
   class="st7"
   version="1.1"
   id="svg55"
   sodipodi:docname="Azure Monitor Azure Stack Health.svg"
   style="font-size:12px;overflow:visible;color-interpolation-filters:sRGB;fill:none;fill-rule:evenodd;stroke-linecap:square;stroke-miterlimit:3"
   inkscape:version="0.92.5 (2060ec1f9f, 2020-04-08)"><metadata
   id="metadata59"><rdf:RDF><cc:Work
       rdf:about=""><dc:format>image/svg+xml</dc:format><dc:type
         rdf:resource="http://purl.org/dc/dcmitype/StillImage" /></cc:Work></rdf:RDF></metadata><sodipodi:namedview
   pagecolor="#ffffff"
   bordercolor="#666666"
   borderopacity="1"
   objecttolerance="10"
   gridtolerance="10"
   guidetolerance="10"
   inkscape:pageopacity="0"
   inkscape:pageshadow="2"
   inkscape:window-width="640"
   inkscape:window-height="480"
   id="namedview57"
   showgrid="false"
   inkscape:zoom="1.4415502"
   inkscape:cx="37.795185"
   inkscape:cy="36.504509"
   inkscape:window-x="0"
   inkscape:window-y="0"
   inkscape:window-maximized="0"
   inkscape:current-layer="svg55" />
	<style
   type="text/css"
   id="style2">
	<![CDATA[
		.st1 {fill:#5ea0ef;stroke:none;stroke-linecap:butt;stroke-width:32.0681}
		.st2 {fill:#50e6ff;stroke:none;stroke-linecap:butt;stroke-width:32.0681}
		.st3 {fill:url(#grad0-10);stroke:none;stroke-linecap:butt;stroke-width:32.0681}
		.st4 {fill:#9cebff;stroke:none;stroke-linecap:butt;stroke-width:32.0681}
		.st5 {fill:#32bedd;stroke:none;stroke-linecap:butt;stroke-width:32.0681}
		.st6 {fill:#ffffff;stroke:none;stroke-linecap:butt;stroke-width:32.0681}
		.st7 {fill:none;fill-rule:evenodd;font-size:12px;overflow:visible;stroke-linecap:square;stroke-miterlimit:3}
	]]>
	</style>

	<defs
   id="Patterns_And_Gradients">
		<linearGradient
   id="grad0-10"
   x1="0"
   y1="96.652085"
   x2="48.091518"
   y2="96.652085"
   gradientTransform="scale(1.1787942,0.84832453)"
   gradientUnits="userSpaceOnUse">
			<stop
   offset="0"
   stop-color="#0078d4"
   stop-opacity="1"
   id="stop4" />
			<stop
   offset="1"
   stop-color="#5ea0ef"
   stop-opacity="1"
   id="stop6" />
		</linearGradient>
	</defs>
	<g
   id="g53"
   transform="translate(-32.0681,-32.065895)">
		<title
   id="title10">Page-1</title>
		<g
   id="group7778-1"
   transform="translate(32.0681,-34.0157)">
			<title
   id="title12">Azure Monitor Azure Stack Health</title>
			<g
   id="group7779-2">
				<title
   id="title14">g16</title>
				<g
   id="shape7780-3"
   transform="translate(1.70394)">
					<title
   id="title16">path2</title>
					<path
   d="m 53.63,113.87 c -0.51,2.24 -3.25,4.42 -8.19,6.13 a 67.5748,68.5879 0 0 1 -37.96,0.05 c -4.57,-1.64 -7.03,-3.71 -7.41,-5.85 -0.07,-0.38 0,-6.25 0,-6.25 l 53.66,-0.5 c 0,0 -0.04,6.15 -0.1,6.42 z"
   class="st1"
   id="path18"
   inkscape:connector-curvature="0"
   style="fill:#5ea0ef;stroke:none;stroke-width:32.06809998;stroke-linecap:butt" />
				</g>
				<g
   id="shape7781-5"
   transform="rotate(-0.575,-523.63555,-60.540786)">
					<title
   id="title21">ellipse4</title>
					<ellipse
   cx="26.850401"
   cy="113.363"
   rx="26.850401"
   ry="9.4210396"
   class="st2"
   id="ellipse23"
   style="fill:#50e6ff;stroke:none;stroke-width:32.06809998;stroke-linecap:butt" />
				</g>
				<g
   id="shape7782-7"
   transform="translate(0,-15.911)">
					<title
   id="title26">path6</title>
					<path
   d="M 56.69,110.01 A 12.737,12.928 -180 0 0 45.64,97.58 16.063,16.3038 -180 0 0 29.1,82 16.4661,16.713 -180 0 0 13.35,92.89 15.2,15.4279 -180 0 0 0,107.74 15.4331,15.6644 -180 0 0 15.96,122.78 c 0.48,0 0.95,-0.02 1.41,-0.06 h 25.85 a 2.57953,2.6182 -180 0 0 0.68,-0.1 12.8913,13.0846 -180 0 0 12.79,-12.61 z"
   class="st3"
   id="path28"
   inkscape:connector-curvature="0"
   style="fill:url(#grad0-10);stroke:none;stroke-width:32.06809998;stroke-linecap:butt" />
				</g>
				<g
   id="shape7783-11"
   transform="translate(14.0787,-29.3697)">
					<title
   id="title31">rect8</title>
					<path
   d="m 0,121.83 a 0.944904,0.95907 -180 0 0 0.944882,0.95905 L 27.32,122.78 a 0.944904,0.95907 -180 0 0 0.944882,-0.95905 L 28.26,115.9 a 0.944904,0.95907 -180 0 0 -0.944882,-0.95905 L 0.94,114.94 a 0.944904,0.95907 -180 0 0 -0.944882,0.95905 z"
   class="st4"
   id="path33"
   inkscape:connector-curvature="0"
   style="fill:#9cebff;stroke:none;stroke-width:32.06809998;stroke-linecap:butt" />
				</g>
				<g
   id="shape7784-13"
   transform="translate(14.0787,-20.2395)">
					<title
   id="title36">rect10</title>
					<path
   d="m 0,121.83 a 0.944904,0.95907 -180 0 0 0.944882,0.95905 L 27.32,122.78 a 0.944904,0.95907 -180 0 0 0.944882,-0.95905 L 28.26,115.9 a 0.944904,0.95907 -180 0 0 -0.944882,-0.95905 L 0.94,114.94 a 0.944904,0.95907 -180 0 0 -0.944882,0.95905 z"
   class="st2"
   id="path38"
   inkscape:connector-curvature="0"
   style="fill:#50e6ff;stroke:none;stroke-width:32.06809998;stroke-linecap:butt" />
				</g>
				<g
   id="shape7785-15"
   transform="translate(14.0787,-10.9559)">
					<title
   id="title41">rect12</title>
					<path
   d="m 0,121.83 a 0.944904,0.95907 -180 0 0 0.944882,0.95905 L 27.32,122.78 a 0.944904,0.95907 -180 0 0 0.944882,-0.95905 L 28.26,115.9 a 0.944904,0.95907 -180 0 0 -0.944882,-0.95905 L 0.94,114.94 a 0.944904,0.95907 -180 0 0 -0.944882,0.95905 z"
   class="st5"
   id="path43"
   inkscape:connector-curvature="0"
   style="fill:#32bedd;stroke:none;stroke-width:32.06809998;stroke-linecap:butt" />
				</g>
				<g
   id="shape7786-17"
   transform="translate(37.9528,-12.3274)">
					<title
   id="title46">path14</title>
					<path
   d="M 1.63,101.42 H 0.47 a 0.472441,0.479524 0 0 1 -0.472441,-0.47952 L 0,99.75 A 0.472441,0.479524 0 0 1 0.472441,99.270476 L 1.64,99.27 a 0.472441,0.479524 0 0 1 0.472441,0.479524 L 2.11,100.94 a 0.472441,0.479524 0 0 1 -0.475591,0.47952 z m 0.48,2.47 v -1.18 A 0.472441,0.479524 -180 0 0 1.637559,102.23048 L 0.47,102.23 a 0.472441,0.479524 -180 0 0 -0.472441,0.47952 L 0,103.89 a 0.472441,0.479524 -180 0 0 0.472441,0.47952 L 1.64,104.37 a 0.472441,0.479524 -180 0 0 0.469291,-0.47952 z m 0,6.18 v -1.2 A 0.472441,0.479524 -180 0 0 1.637559,108.39048 L 0.47,108.4 a 0.472441,0.479524 -180 0 0 -0.472441,0.47952 L 0,110.06 a 0.472441,0.479524 -180 0 0 0.472441,0.47952 L 1.64,110.54 a 0.472441,0.479524 -180 0 0 0.469291,-0.47313 z m 0,2.95 v -1.18 A 0.472441,0.479524 -180 0 0 1.637559,111.36048 L 0.47,111.36 a 0.472441,0.479524 -180 0 0 -0.472441,0.47952 L 0,113.03 a 0.472441,0.479524 -180 0 0 0.472441,0.47952 L 1.64,113.51 a 0.472441,0.479524 -180 0 0 0.469291,-0.47952 z m 0,6.33 v -1.19 A 0.472441,0.479524 -180 0 0 1.637559,117.68048 L 0.47,117.69 a 0.472441,0.479524 -180 0 0 -0.472441,0.47952 L 0,119.35 a 0.472441,0.479524 -180 0 0 0.472441,0.47952 L 1.64,119.83 a 0.472441,0.479524 -180 0 0 0.469291,-0.47952 z m 0,2.95 v -1.18 A 0.472441,0.479524 -180 0 0 1.637559,120.64048 L 0.47,120.64 a 0.472441,0.479524 -180 0 0 -0.472441,0.47952 L 0,122.3 a 0.472441,0.479524 -180 0 0 0.472441,0.47952 L 1.64,122.78 a 0.472441,0.479524 -180 0 0 0.469291,-0.48272 z"
   class="st6"
   id="path48"
   inkscape:connector-curvature="0"
   style="fill:#ffffff;stroke:none;stroke-width:32.06809998;stroke-linecap:butt" />
				</g>
			</g>
		</g>
	</g>
</svg>

<?xml version="1.0" encoding="UTF-8" standalone="no"?>
<!DOCTYPE svg PUBLIC "-//W3C//DTD SVG 1.1//EN" "http://www.w3.org/Graphics/SVG/1.1/DTD/svg11.dtd">
<!-- Generated by Microsoft Visio, SVG Export Azure Monitor Azure Stack Health.svg Page-1 -->
<svg xmlns="http://www.w3.org/2000/svg" xmlns:xlink="http://www.w3.org/1999/xlink" xmlns:ev="http://www.w3.org/2001/xml-events"
		width="1.67818in" height="1.70534in" viewBox="0 0 120.829 122.784" xml:space="preserve" color-interpolation-filters="sRGB"
		class="st7">
	<style type="text/css">
	<![CDATA[
		.st1 {fill:#5ea0ef;stroke:none;stroke-linecap:butt;stroke-width:32.0681}
		.st2 {fill:#50e6ff;stroke:none;stroke-linecap:butt;stroke-width:32.0681}
		.st3 {fill:url(#grad0-10);stroke:none;stroke-linecap:butt;stroke-width:32.0681}
		.st4 {fill:#9cebff;stroke:none;stroke-linecap:butt;stroke-width:32.0681}
		.st5 {fill:#32bedd;stroke:none;stroke-linecap:butt;stroke-width:32.0681}
		.st6 {fill:#ffffff;stroke:none;stroke-linecap:butt;stroke-width:32.0681}
		.st7 {fill:none;fill-rule:evenodd;font-size:12px;overflow:visible;stroke-linecap:square;stroke-miterlimit:3}
	]]>
	</style>

	<defs id="Patterns_And_Gradients">
		<linearGradient id="grad0-10" x1="0" y1="0" x2="1" y2="0" gradientTransform="rotate(-90 0.5 0.5)">
			<stop offset="0" stop-color="#0078d4" stop-opacity="1"/>
			<stop offset="1" stop-color="#5ea0ef" stop-opacity="1"/>
		</linearGradient>
	</defs>
	<g>
		<title>Page-1</title>
		<g id="group7583-1" transform="translate(32.0681,-34.0157)">
			<title>Azure Monitor Azure Stack Health</title>
			<g id="group7584-2">
				<title>g16</title>
				<g id="shape7585-3" transform="translate(1.70394,-2.84217E-13)">
					<title>path2</title>
					<path d="M53.63 113.87 C53.12 116.11 50.38 118.29 45.44 120 A67.5748 68.5879 0 0 1 7.48 120.05 C2.91 118.41 0.45
								 116.34 0.07 114.2 C0 113.82 0.07 107.95 0.07 107.95 L53.73 107.45 C53.73 107.45 53.69 113.6 53.63
								 113.87 Z" class="st1"/>
				</g>
				<g id="shape7586-5" transform="translate(0.581187,-5.25798) rotate(-0.575)">
					<title>ellipse4</title>
					<ellipse cx="26.8504" cy="113.363" rx="26.8504" ry="9.42104" class="st2"/>
				</g>
				<g id="shape7587-7" transform="translate(0,-15.911)">
					<title>path6</title>
					<path d="M56.69 110.01 A12.737 12.928 -180 0 0 45.64 97.58 A16.063 16.3038 -180 0 0 29.1 82 A16.4661 16.713 -180
								 0 0 13.35 92.89 A15.2 15.4279 -180 0 0 0 107.74 A15.4331 15.6644 -180 0 0 15.96 122.78 C16.44 122.78
								 16.91 122.76 17.37 122.72 L43.22 122.72 A2.57953 2.6182 -180 0 0 43.9 122.62 A12.8913 13.0846 -180
								 0 0 56.69 110.01 Z" class="st3"/>
				</g>
				<g id="shape7588-11" transform="translate(14.0787,-29.3697)">
					<title>rect8</title>
					<path d="M0 121.83 a0.944904 0.95907 -180 0 0 0.944882 0.959047 L27.32 122.78 a0.944904 0.95907 -180 0 0 0.944882
								 -0.959047 L28.26 115.9 a0.944904 0.95907 -180 0 0 -0.944882 -0.959047 L0.94 114.94 a0.944904 0.95907
								 -180 0 0 -0.944882 0.959047 L0 121.83 Z" class="st4"/>
				</g>
				<g id="shape7589-13" transform="translate(14.0787,-20.2395)">
					<title>rect10</title>
					<path d="M0 121.83 a0.944904 0.95907 -180 0 0 0.944882 0.959047 L27.32 122.78 a0.944904 0.95907 -180 0 0 0.944882
								 -0.959047 L28.26 115.9 a0.944904 0.95907 -180 0 0 -0.944882 -0.959047 L0.94 114.94 a0.944904 0.95907
								 -180 0 0 -0.944882 0.959047 L0 121.83 Z" class="st2"/>
				</g>
				<g id="shape7590-15" transform="translate(14.0787,-10.9559)">
					<title>rect12</title>
					<path d="M0 121.83 a0.944904 0.95907 -180 0 0 0.944882 0.959047 L27.32 122.78 a0.944904 0.95907 -180 0 0 0.944882
								 -0.959047 L28.26 115.9 a0.944904 0.95907 -180 0 0 -0.944882 -0.959047 L0.94 114.94 a0.944904 0.95907
								 -180 0 0 -0.944882 0.959047 L0 121.83 Z" class="st5"/>
				</g>
				<g id="shape7591-17" transform="translate(37.9528,-12.3274)">
					<title>path14</title>
					<path d="M1.63 101.42 L0.47 101.42 a0.472441 0.479524 0 0 1 -0.472441 -0.479524 L0 99.75 a0.472441 0.479524 0
								 0 1 0.472441 -0.479524 L1.64 99.27 a0.472441 0.479524 0 0 1 0.472441 0.479524 L2.11 100.94 a0.472441
								 0.479524 0 0 1 -0.475591 0.479524 ZM2.11 103.89 L2.11 102.71 a0.472441 0.479524 -180 0 0 -0.472441
								 -0.479524 L0.47 102.23 a0.472441 0.479524 -180 0 0 -0.472441 0.479524 L0 103.89 a0.472441 0.479524
								 -180 0 0 0.472441 0.479524 L1.64 104.37 a0.472441 0.479524 -180 0 0 0.469291 -0.479524 ZM2.11 110.07
								 L2.11 108.87 a0.472441 0.479524 -180 0 0 -0.472441 -0.479524 L0.47 108.4 a0.472441 0.479524 -180
								 0 0 -0.472441 0.479524 L0 110.06 a0.472441 0.479524 -180 0 0 0.472441 0.479524 L1.64 110.54 a0.472441
								 0.479524 -180 0 0 0.469291 -0.47313 ZM2.11 113.02 L2.11 111.84 a0.472441 0.479524 -180 0 0 -0.472441
								 -0.479524 L0.47 111.36 a0.472441 0.479524 -180 0 0 -0.472441 0.479524 L0 113.03 a0.472441 0.479524
								 -180 0 0 0.472441 0.479524 L1.64 113.51 a0.472441 0.479524 -180 0 0 0.469291 -0.479524 L2.11 113.02
								 ZM2.11 119.35 L2.11 118.16 a0.472441 0.479524 -180 0 0 -0.472441 -0.479524 L0.47 117.69 a0.472441
								 0.479524 -180 0 0 -0.472441 0.479524 L0 119.35 a0.472441 0.479524 -180 0 0 0.472441 0.479524 L1.64
								 119.83 a0.472441 0.479524 -180 0 0 0.469291 -0.479524 ZM2.11 122.3 L2.11 121.12 a0.472441 0.479524
								 -180 0 0 -0.472441 -0.479524 L0.47 120.64 a0.472441 0.479524 -180 0 0 -0.472441 0.479524 L0 122.3
								 a0.472441 0.479524 -180 0 0 0.472441 0.479524 L1.64 122.78 a0.472441 0.479524 -180 0 0 0.469291
								 -0.48272 L2.11 122.3 Z" class="st6"/>
				</g>
			</g>
		</g>
	</g>
</svg>
